X:411
T: Achtzehn Jahre alt (129), S. 294
N: T0299
O: Luxemburg
S: Singendes Volk, Esch-Alzette 1937 posth.]
N: Junglinster, hhh Valentin Santer, 1901
R: Liebeslieder]
M: 2/4
L: 1/16
K: C
G2 | e2e2d2d2 | c2c2E4 |
G2G2F2F2 | A2A2G4 |
e2e2d2d2 | ccc2E4 |
G2G2F2c2 | B2d2c2

@@@ Tune index: 8465
